X: 512
T: Irish Ship Builder
%R: jig
B: "Preston's Twenty Four Country Dances for the Year 1803", Tho. Preston, ed. p.2216 #2
F: http://folkopedia.efdss.org/images/archive/0/02/20121211105513%21Preston_24_1803.PDF
F: http://folkopedia.efdss.org/wiki/File:Preston_24_1803.PDF
Z: 2014 John Chambers <jc:trillian.mit.edu>
M: 6/8
L: 1/8
K: Bb
% - - - - - - - - - - - - - - - - - - - - - - - - -
!segno!|:\
B2b f2b | g2b fdB | dBG ({A}GF).G | cAF FGA |\
B2b f2b | g2b fdB | Ged cBA | B3 "_Fine"B3 :|
d2f c2f | d2f c2f | =e2g b2a | gaf g=ec |\
f=ef agf | =efg GAB | Adc BAG | F3 FG"_D.C."A !segno!|]
% - - - - - - - - - - - - - - - - - - - - - - - - -
%%begintext align
%% Cast off 2 Cu. up again, cross over & turn your Part.r & right & left.
%%endtext
